X:430
T:Lady Lucy Ramsay
R:Strathspey
B:The Athole Collection
M:C
L:1/8
K:C
f|e<g g>a g>ec>a|g>ca>c e<d d>f|e<g g>a g>ag>e|f>dg>f e<cc:|
|:e|G>cE>c d>cd>e|c<c e>d c<A A>c|1 G<cE<c d>cd>e|c<A G>F E<C d>c:|2
G<cE<c F<dE<c|D<a g>f e<cc||

